Adwaita++-Light/panel/24/google-chrome-notification-disabled.svg

<svg height="24" width="24" xmlns="http://www.w3.org/2000/svg">
  <path d="m12 4a8 8 0 0 0 -5.6035 2.293l2.7558 4.773a3 3 0 0 1 2.8477-2.066h7.412a8 8 0 0 0 -7.412-5zm-6.3008 3.0859a8 8 0 0 0 -1.6992 4.9141 8 8 0 0 0 5.8652 7.701l2.7518-4.767a3 3 0 0 1 -.617.066 3 3 0 0 1 -2.5938-1.502l-.0039.002zm8.5308 2.9141a3 3 0 0 1 .77 2 3 3 0 0 1 -.404 1.498l.002.002-3.7035 6.414a8 8 0 0 0 1.1055.086 8 8 0 0 0 8-8 8 8 0 0 0 -.26-2z" fill="#444" opacity=".3"/>
  <path d="m11.999823 10a1.9999646 1.9999646 0 0 0 -1.999823 1.999823 1.9999646 1.9999646 0 0 0 1.999823 2.000177 1.9999646 1.9999646 0 0 0 2.000177-2.000177 1.9999646 1.9999646 0 0 0 -2.000177-1.999823z" fill="#4285f4"/>
</svg>

<svg xmlns="http://www.w3.org/2000/svg" width="24" height="24" version="1.1">
 <defs>
  <style id="current-color-scheme" type="text/css">
   .ColorScheme-Text { color:#444444; } .ColorScheme-Highlight { color:#4285f4; }
  </style>
 </defs>
 <g>
  <path style="opacity:0.3;fill:currentColor" class="ColorScheme-Text" d="M 12,4 A 8,8 0 0 0 6.3965,6.293 l 2.7558,4.773 A 3,3 0 0 1 12,9 l 7.412,0 A 8,8 0 0 0 12,4 Z M 5.6992,7.0859 A 8,8 0 0 0 4,12 8,8 0 0 0 9.8652,19.701 L 12.617,14.934 A 3,3 0 0 1 12,15 3,3 0 0 1 9.4062,13.498 L 9.4023,13.5 5.6992,7.0859 Z M 14.23,10 a 3,3 0 0 1 0.77,2 3,3 0 0 1 -0.404,1.498 l 0.002,0.002 -3.7035,6.414 A 8,8 0 0 0 12,20 8,8 0 0 0 20,12 8,8 0 0 0 19.74,10 l -5.51,0 z"/>
  <path style="fill:currentColor" class="ColorScheme-Highlight" d="M 11.999823,10 A 1.9999646,1.9999646 0 0 0 10,11.999823 1.9999646,1.9999646 0 0 0 11.999823,14 1.9999646,1.9999646 0 0 0 14,11.999823 1.9999646,1.9999646 0 0 0 11.999823,10 Z"/>
 </g>
</svg>
